images/5459533.svg

<?xml version="1.0" encoding="UTF-8"?>
<svg xmlns="http://www.w3.org/2000/svg" xmlns:xlink="http://www.w3.org/1999/xlink" width="300pt" height="300pt" viewBox="0 0 300 300" version="1.1">
<defs>
<g>
<symbol overflow="visible" id="glyph0-0">
<path style="stroke:none;" d="M 0.453125 1.59375 L 0.453125 -6.34375 L 4.953125 -6.34375 L 4.953125 1.59375 Z M 0.953125 1.09375 L 4.453125 1.09375 L 4.453125 -5.84375 L 0.953125 -5.84375 Z M 0.953125 1.09375 "/>
</symbol>
<symbol overflow="visible" id="glyph0-1">
<path style="stroke:none;" d="M 3.546875 -5.953125 C 2.898438 -5.953125 2.382812 -5.710938 2 -5.234375 C 1.625 -4.753906 1.4375 -4.101562 1.4375 -3.28125 C 1.4375 -2.445312 1.625 -1.789062 2 -1.3125 C 2.382812 -0.832031 2.898438 -0.59375 3.546875 -0.59375 C 4.191406 -0.59375 4.703125 -0.832031 5.078125 -1.3125 C 5.453125 -1.789062 5.640625 -2.445312 5.640625 -3.28125 C 5.640625 -4.101562 5.453125 -4.753906 5.078125 -5.234375 C 4.703125 -5.710938 4.191406 -5.953125 3.546875 -5.953125 Z M 3.546875 -6.6875 C 4.460938 -6.6875 5.195312 -6.375 5.75 -5.75 C 6.300781 -5.132812 6.578125 -4.3125 6.578125 -3.28125 C 6.578125 -2.238281 6.300781 -1.410156 5.75 -0.796875 C 5.195312 -0.179688 4.460938 0.125 3.546875 0.125 C 2.617188 0.125 1.878906 -0.179688 1.328125 -0.796875 C 0.773438 -1.410156 0.5 -2.238281 0.5 -3.28125 C 0.5 -4.3125 0.773438 -5.132812 1.328125 -5.75 C 1.878906 -6.375 2.617188 -6.6875 3.546875 -6.6875 Z M 3.546875 -6.6875 "/>
</symbol>
<symbol overflow="visible" id="glyph0-2">
<path style="stroke:none;" d="M 0.890625 -6.5625 L 2.078125 -6.5625 L 4.984375 -1.078125 L 4.984375 -6.5625 L 5.84375 -6.5625 L 5.84375 0 L 4.65625 0 L 1.75 -5.484375 L 1.75 0 L 0.890625 0 Z M 0.890625 -6.5625 "/>
</symbol>
<symbol overflow="visible" id="glyph0-3">
<path style="stroke:none;" d="M 0.890625 -6.5625 L 1.765625 -6.5625 L 1.765625 -3.875 L 5 -3.875 L 5 -6.5625 L 5.890625 -6.5625 L 5.890625 0 L 5 0 L 5 -3.125 L 1.765625 -3.125 L 1.765625 0 L 0.890625 0 Z M 0.890625 -6.5625 "/>
</symbol>
</g>
</defs>
<g id="surface36497">
<rect x="0" y="0" width="300" height="300" style="fill:rgb(100%,100%,100%);fill-opacity:1;stroke:none;"/>
<path style=" stroke:none;fill-rule:nonzero;fill:rgb(0%,0%,0%);fill-opacity:1;" d="M 168.464844 116.472656 L 155.367188 99.359375 L 150.300781 104.878906 Z M 168.464844 116.472656 "/>
<path style="fill:none;stroke-width:1.2;stroke-linecap:butt;stroke-linejoin:miter;stroke:rgb(0%,0%,0%);stroke-opacity:1;stroke-miterlimit:10;" d="M 168.464844 116.472656 L 163.847656 137.1875 "/>
<path style="fill:none;stroke-width:1.2;stroke-linecap:butt;stroke-linejoin:miter;stroke:rgb(0%,0%,0%);stroke-opacity:1;stroke-miterlimit:10;" d="M 168.464844 116.472656 L 188.710938 110.113281 "/>
<path style="fill:none;stroke-width:1.2;stroke-linecap:butt;stroke-linejoin:miter;stroke:rgb(0%,0%,0%);stroke-opacity:1;stroke-miterlimit:10;" d="M 163.847656 137.1875 L 179.480469 151.542969 "/>
<path style="fill:none;stroke-width:1.2;stroke-linecap:butt;stroke-linejoin:miter;stroke:rgb(0%,0%,0%);stroke-opacity:1;stroke-miterlimit:10;" d="M 162.035156 142.304688 L 174.539062 153.785156 "/>
<path style="fill:none;stroke-width:1.2;stroke-linecap:butt;stroke-linejoin:miter;stroke:rgb(0%,0%,0%);stroke-opacity:1;stroke-miterlimit:10;" d="M 179.480469 151.542969 L 174.863281 172.257812 "/>
<path style="fill:none;stroke-width:1.2;stroke-linecap:butt;stroke-linejoin:miter;stroke:rgb(0%,0%,0%);stroke-opacity:1;stroke-miterlimit:10;" d="M 174.863281 172.257812 L 190.496094 186.613281 "/>
<path style="fill:none;stroke-width:1.2;stroke-linecap:butt;stroke-linejoin:miter;stroke:rgb(0%,0%,0%);stroke-opacity:1;stroke-miterlimit:10;" d="M 174.863281 172.257812 L 164.738281 175.4375 "/>
<path style="fill:none;stroke-width:1.2;stroke-linecap:butt;stroke-linejoin:miter;stroke:rgb(0%,0%,100%);stroke-opacity:1;stroke-miterlimit:10;" d="M 164.738281 175.4375 L 154.617188 178.617188 "/>
<path style="fill:none;stroke-width:1.2;stroke-linecap:butt;stroke-linejoin:miter;stroke:rgb(0%,0%,0%);stroke-opacity:1;stroke-miterlimit:10;" d="M 190.496094 186.613281 L 185.878906 207.328125 "/>
<path style="fill:none;stroke-width:1.2;stroke-linecap:butt;stroke-linejoin:miter;stroke:rgb(0%,0%,0%);stroke-opacity:1;stroke-miterlimit:10;" d="M 194.90625 189.773438 L 191.214844 206.34375 "/>
<path style="fill:none;stroke-width:1.2;stroke-linecap:butt;stroke-linejoin:miter;stroke:rgb(0%,0%,0%);stroke-opacity:1;stroke-miterlimit:10;" d="M 210.742188 180.253906 L 190.496094 186.613281 "/>
<path style="fill:none;stroke-width:1.2;stroke-linecap:butt;stroke-linejoin:miter;stroke:rgb(0%,0%,0%);stroke-opacity:1;stroke-miterlimit:10;" d="M 185.878906 207.328125 L 201.511719 221.683594 "/>
<path style="fill:none;stroke-width:1.2;stroke-linecap:butt;stroke-linejoin:miter;stroke:rgb(0%,0%,0%);stroke-opacity:1;stroke-miterlimit:10;" d="M 201.511719 221.683594 L 221.757812 215.324219 "/>
<path style="fill:none;stroke-width:1.2;stroke-linecap:butt;stroke-linejoin:miter;stroke:rgb(0%,0%,0%);stroke-opacity:1;stroke-miterlimit:10;" d="M 202.039062 216.285156 L 218.238281 211.195312 "/>
<path style="fill:none;stroke-width:1.2;stroke-linecap:butt;stroke-linejoin:miter;stroke:rgb(0%,0%,0%);stroke-opacity:1;stroke-miterlimit:10;" d="M 221.757812 215.324219 L 226.375 194.609375 "/>
<path style="fill:none;stroke-width:1.2;stroke-linecap:butt;stroke-linejoin:miter;stroke:rgb(0%,0%,0%);stroke-opacity:1;stroke-miterlimit:10;" d="M 221.757812 215.324219 L 237.390625 229.679688 "/>
<path style="fill:none;stroke-width:1.2;stroke-linecap:butt;stroke-linejoin:miter;stroke:rgb(0%,0%,0%);stroke-opacity:1;stroke-miterlimit:10;" d="M 226.375 194.609375 L 210.742188 180.253906 "/>
<path style="fill:none;stroke-width:1.2;stroke-linecap:butt;stroke-linejoin:miter;stroke:rgb(0%,0%,0%);stroke-opacity:1;stroke-miterlimit:10;" d="M 221.433594 196.851562 L 208.929688 185.367188 "/>
<path style="fill:none;stroke-width:1.2;stroke-linecap:butt;stroke-linejoin:miter;stroke:rgb(0%,0%,0%);stroke-opacity:1;stroke-miterlimit:10;" d="M 238.136719 232.0625 L 248.261719 228.882812 "/>
<path style="fill:none;stroke-width:1.2;stroke-linecap:butt;stroke-linejoin:miter;stroke:rgb(100%,0%,0%);stroke-opacity:1;stroke-miterlimit:10;" d="M 248.261719 228.882812 L 258.386719 225.703125 "/>
<path style="fill:none;stroke-width:1.2;stroke-linecap:butt;stroke-linejoin:miter;stroke:rgb(0%,0%,0%);stroke-opacity:1;stroke-miterlimit:10;" d="M 236.640625 227.296875 L 246.765625 224.117188 "/>
<path style="fill:none;stroke-width:1.2;stroke-linecap:butt;stroke-linejoin:miter;stroke:rgb(100%,0%,0%);stroke-opacity:1;stroke-miterlimit:10;" d="M 246.765625 224.117188 L 256.890625 220.9375 "/>
<path style="fill:none;stroke-width:1.2;stroke-linecap:butt;stroke-linejoin:miter;stroke:rgb(0%,0%,0%);stroke-opacity:1;stroke-miterlimit:10;" d="M 237.390625 229.679688 L 235.082031 240.039062 "/>
<path style="fill:none;stroke-width:1.2;stroke-linecap:butt;stroke-linejoin:miter;stroke:rgb(100%,0%,0%);stroke-opacity:1;stroke-miterlimit:10;" d="M 235.082031 240.039062 L 232.773438 250.394531 "/>
<path style=" stroke:none;fill-rule:nonzero;fill:rgb(100%,100%,100%);fill-opacity:1;" d="M 253.636719 217.820312 L 261.636719 217.820312 L 261.636719 228.820312 L 253.636719 228.820312 Z M 253.636719 217.820312 "/>
<g style="fill:rgb(100%,0%,0%);fill-opacity:1;">
  <use xlink:href="#glyph0-1" x="253.636719" y="226.483398"/>
</g>
<path style="fill:none;stroke-width:1.2;stroke-linecap:butt;stroke-linejoin:miter;stroke:rgb(100%,0%,0%);stroke-opacity:1;stroke-miterlimit:10;" d="M 232.773438 250.394531 L 240.589844 257.574219 "/>
<path style="fill:none;stroke-width:1.2;stroke-linecap:butt;stroke-linejoin:miter;stroke:rgb(0%,0%,0%);stroke-opacity:1;stroke-miterlimit:10;" d="M 240.589844 257.574219 L 248.40625 264.75 "/>
<path style=" stroke:none;fill-rule:nonzero;fill:rgb(100%,100%,100%);fill-opacity:1;" d="M 228.773438 244.894531 L 236.773438 244.894531 L 236.773438 255.894531 L 228.773438 255.894531 Z M 228.773438 244.894531 "/>
<g style="fill:rgb(100%,0%,0%);fill-opacity:1;">
  <use xlink:href="#glyph0-1" x="228.773438" y="253.557617"/>
</g>
<path style="fill:none;stroke-width:1.2;stroke-linecap:butt;stroke-linejoin:miter;stroke:rgb(0%,0%,100%);stroke-opacity:1;stroke-miterlimit:10;" d="M 154.617188 178.617188 L 146.800781 171.441406 "/>
<path style="fill:none;stroke-width:1.2;stroke-linecap:butt;stroke-linejoin:miter;stroke:rgb(0%,0%,0%);stroke-opacity:1;stroke-miterlimit:10;" d="M 146.800781 171.441406 L 138.984375 164.265625 "/>
<path style=" stroke:none;fill-rule:nonzero;fill:rgb(100%,100%,100%);fill-opacity:1;" d="M 147.617188 173.117188 L 161.617188 173.117188 L 161.617188 184.117188 L 147.617188 184.117188 Z M 147.617188 173.117188 "/>
<g style="fill:rgb(0%,0%,100%);fill-opacity:1;">
  <use xlink:href="#glyph0-2" x="147.617188" y="181.780273"/>
  <use xlink:href="#glyph0-3" x="154.594727" y="181.780273"/>
</g>
<path style="fill:none;stroke-width:1.2;stroke-linecap:butt;stroke-linejoin:miter;stroke:rgb(0%,0%,0%);stroke-opacity:1;stroke-miterlimit:10;" d="M 141.421875 164.808594 L 143.730469 154.449219 "/>
<path style="fill:none;stroke-width:1.2;stroke-linecap:butt;stroke-linejoin:miter;stroke:rgb(100%,0%,0%);stroke-opacity:1;stroke-miterlimit:10;" d="M 143.730469 154.449219 L 146.039062 144.09375 "/>
<path style="fill:none;stroke-width:1.2;stroke-linecap:butt;stroke-linejoin:miter;stroke:rgb(0%,0%,0%);stroke-opacity:1;stroke-miterlimit:10;" d="M 136.546875 163.722656 L 138.855469 153.363281 "/>
<path style="fill:none;stroke-width:1.2;stroke-linecap:butt;stroke-linejoin:miter;stroke:rgb(100%,0%,0%);stroke-opacity:1;stroke-miterlimit:10;" d="M 138.855469 153.363281 L 141.164062 143.007812 "/>
<path style="fill:none;stroke-width:1.2;stroke-linecap:butt;stroke-linejoin:miter;stroke:rgb(0%,0%,0%);stroke-opacity:1;stroke-miterlimit:10;" d="M 138.984375 164.265625 L 128.859375 167.445312 "/>
<path style="fill:none;stroke-width:1.2;stroke-linecap:butt;stroke-linejoin:miter;stroke:rgb(100%,0%,0%);stroke-opacity:1;stroke-miterlimit:10;" d="M 128.859375 167.445312 L 118.738281 170.625 "/>
<path style=" stroke:none;fill-rule:nonzero;fill:rgb(100%,100%,100%);fill-opacity:1;" d="M 139.601562 138.050781 L 147.601562 138.050781 L 147.601562 149.050781 L 139.601562 149.050781 Z M 139.601562 138.050781 "/>
<g style="fill:rgb(100%,0%,0%);fill-opacity:1;">
  <use xlink:href="#glyph0-1" x="139.601562" y="146.713867"/>
</g>
<path style="fill:none;stroke-width:1.2;stroke-linecap:butt;stroke-linejoin:miter;stroke:rgb(100%,0%,0%);stroke-opacity:1;stroke-miterlimit:10;" d="M 118.738281 170.625 L 110.921875 163.445312 "/>
<path style="fill:none;stroke-width:1.2;stroke-linecap:butt;stroke-linejoin:miter;stroke:rgb(0%,0%,0%);stroke-opacity:1;stroke-miterlimit:10;" d="M 110.921875 163.445312 L 103.105469 156.269531 "/>
<path style=" stroke:none;fill-rule:nonzero;fill:rgb(100%,100%,100%);fill-opacity:1;" d="M 114.738281 165.125 L 122.738281 165.125 L 122.738281 176.125 L 114.738281 176.125 Z M 114.738281 165.125 "/>
<g style="fill:rgb(100%,0%,0%);fill-opacity:1;">
  <use xlink:href="#glyph0-1" x="114.738281" y="173.788086"/>
</g>
<path style="fill:none;stroke-width:1.2;stroke-linecap:butt;stroke-linejoin:miter;stroke:rgb(0%,0%,0%);stroke-opacity:1;stroke-miterlimit:10;" d="M 103.105469 156.269531 L 82.855469 162.628906 "/>
<path style="fill:none;stroke-width:1.2;stroke-linecap:butt;stroke-linejoin:miter;stroke:rgb(0%,0%,0%);stroke-opacity:1;stroke-miterlimit:10;" d="M 82.855469 162.628906 L 67.226562 148.273438 "/>
<path style="fill:none;stroke-width:1.2;stroke-linecap:butt;stroke-linejoin:miter;stroke:rgb(0%,0%,0%);stroke-opacity:1;stroke-miterlimit:10;" d="M 77.917969 164.871094 L 65.410156 153.386719 "/>
<path style="fill:none;stroke-width:1.2;stroke-linecap:butt;stroke-linejoin:miter;stroke:rgb(0%,0%,0%);stroke-opacity:1;stroke-miterlimit:10;" d="M 78.242188 183.34375 L 82.855469 162.628906 "/>
<path style="fill:none;stroke-width:1.2;stroke-linecap:butt;stroke-linejoin:miter;stroke:rgb(0%,0%,0%);stroke-opacity:1;stroke-miterlimit:10;" d="M 67.226562 148.273438 L 46.976562 154.632812 "/>
<path style="fill:none;stroke-width:1.2;stroke-linecap:butt;stroke-linejoin:miter;stroke:rgb(0%,0%,0%);stroke-opacity:1;stroke-miterlimit:10;" d="M 46.976562 154.632812 L 42.363281 175.347656 "/>
<path style="fill:none;stroke-width:1.2;stroke-linecap:butt;stroke-linejoin:miter;stroke:rgb(0%,0%,0%);stroke-opacity:1;stroke-miterlimit:10;" d="M 51.390625 157.789062 L 47.699219 174.363281 "/>
<path style="fill:none;stroke-width:1.2;stroke-linecap:butt;stroke-linejoin:miter;stroke:rgb(0%,0%,0%);stroke-opacity:1;stroke-miterlimit:10;" d="M 42.363281 175.347656 L 57.992188 189.703125 "/>
<path style="fill:none;stroke-width:1.2;stroke-linecap:butt;stroke-linejoin:miter;stroke:rgb(0%,0%,0%);stroke-opacity:1;stroke-miterlimit:10;" d="M 57.992188 189.703125 L 78.242188 183.34375 "/>
<path style="fill:none;stroke-width:1.2;stroke-linecap:butt;stroke-linejoin:miter;stroke:rgb(0%,0%,0%);stroke-opacity:1;stroke-miterlimit:10;" d="M 58.523438 184.304688 L 74.71875 179.214844 "/>
<path style="fill:none;stroke-width:1.2;stroke-linecap:butt;stroke-linejoin:miter;stroke:rgb(0%,0%,0%);stroke-opacity:1;stroke-miterlimit:10;" d="M 187.023438 111.953125 L 194.839844 119.132812 "/>
<path style="fill:none;stroke-width:1.2;stroke-linecap:butt;stroke-linejoin:miter;stroke:rgb(100%,0%,0%);stroke-opacity:1;stroke-miterlimit:10;" d="M 194.839844 119.132812 L 202.65625 126.308594 "/>
<path style="fill:none;stroke-width:1.2;stroke-linecap:butt;stroke-linejoin:miter;stroke:rgb(0%,0%,0%);stroke-opacity:1;stroke-miterlimit:10;" d="M 190.402344 108.277344 L 198.21875 115.453125 "/>
<path style="fill:none;stroke-width:1.2;stroke-linecap:butt;stroke-linejoin:miter;stroke:rgb(100%,0%,0%);stroke-opacity:1;stroke-miterlimit:10;" d="M 198.21875 115.453125 L 206.03125 122.628906 "/>
<path style="fill:none;stroke-width:1.2;stroke-linecap:butt;stroke-linejoin:miter;stroke:rgb(0%,0%,0%);stroke-opacity:1;stroke-miterlimit:10;" d="M 188.710938 110.113281 L 191.019531 99.757812 "/>
<path style="fill:none;stroke-width:1.2;stroke-linecap:butt;stroke-linejoin:miter;stroke:rgb(0%,0%,100%);stroke-opacity:1;stroke-miterlimit:10;" d="M 191.019531 99.757812 L 193.328125 89.398438 "/>
<path style=" stroke:none;fill-rule:nonzero;fill:rgb(100%,100%,100%);fill-opacity:1;" d="M 200.34375 118.96875 L 208.34375 118.96875 L 208.34375 129.96875 L 200.34375 129.96875 Z M 200.34375 118.96875 "/>
<g style="fill:rgb(100%,0%,0%);fill-opacity:1;">
  <use xlink:href="#glyph0-1" x="200.34375" y="127.631836"/>
</g>
<path style="fill:none;stroke-width:1.2;stroke-linecap:butt;stroke-linejoin:miter;stroke:rgb(0%,0%,100%);stroke-opacity:1;stroke-miterlimit:10;" d="M 193.328125 89.398438 L 203.453125 86.21875 "/>
<path style="fill:none;stroke-width:1.2;stroke-linecap:butt;stroke-linejoin:miter;stroke:rgb(0%,0%,0%);stroke-opacity:1;stroke-miterlimit:10;" d="M 203.453125 86.21875 L 213.574219 83.039062 "/>
<path style=" stroke:none;fill-rule:nonzero;fill:rgb(100%,100%,100%);fill-opacity:1;" d="M 186.328125 83.898438 L 200.328125 83.898438 L 200.328125 94.898438 L 186.328125 94.898438 Z M 186.328125 83.898438 "/>
<g style="fill:rgb(0%,0%,100%);fill-opacity:1;">
  <use xlink:href="#glyph0-2" x="186.328125" y="92.561523"/>
  <use xlink:href="#glyph0-3" x="193.305664" y="92.561523"/>
</g>
<path style="fill:none;stroke-width:1.2;stroke-linecap:butt;stroke-linejoin:miter;stroke:rgb(0%,0%,0%);stroke-opacity:1;stroke-miterlimit:10;" d="M 213.574219 83.039062 L 218.191406 62.324219 "/>
<path style="fill:none;stroke-width:1.2;stroke-linecap:butt;stroke-linejoin:miter;stroke:rgb(0%,0%,0%);stroke-opacity:1;stroke-miterlimit:10;" d="M 218.191406 62.324219 L 228.316406 59.144531 "/>
<path style="fill:none;stroke-width:1.2;stroke-linecap:butt;stroke-linejoin:miter;stroke:rgb(100%,0%,0%);stroke-opacity:1;stroke-miterlimit:10;" d="M 228.316406 59.144531 L 238.441406 55.964844 "/>
<path style="fill:none;stroke-width:1.2;stroke-linecap:butt;stroke-linejoin:miter;stroke:rgb(100%,0%,0%);stroke-opacity:1;stroke-miterlimit:10;" d="M 238.441406 55.964844 L 240.746094 45.609375 "/>
<path style="fill:none;stroke-width:1.2;stroke-linecap:butt;stroke-linejoin:miter;stroke:rgb(0%,0%,0%);stroke-opacity:1;stroke-miterlimit:10;" d="M 240.746094 45.609375 L 243.054688 35.25 "/>
<path style=" stroke:none;fill-rule:nonzero;fill:rgb(100%,100%,100%);fill-opacity:1;" d="M 234.441406 50.464844 L 242.441406 50.464844 L 242.441406 61.464844 L 234.441406 61.464844 Z M 234.441406 50.464844 "/>
<g style="fill:rgb(100%,0%,0%);fill-opacity:1;">
  <use xlink:href="#glyph0-1" x="234.441406" y="59.12793"/>
</g>
</g>
</svg>

<svg xmlns="http://www.w3.org/2000/svg" xmlns:xlink="http://www.w3.org/1999/xlink" width="300pt" height="300pt" viewBox="0 0 300 300"><defs><symbol overflow="visible"><path d="M.453 1.594v-7.938h4.5v7.938zm.5-.5h3.5v-6.938h-3.5zm0 0"/></symbol><symbol overflow="visible" id="a"><path d="M3.547-5.953c-.65 0-1.164.242-1.547.72-.375.48-.563 1.13-.563 1.952 0 .835.188 1.49.563 1.967.383.48.898.72 1.547.72.644 0 1.156-.24 1.53-.72.376-.476.564-1.132.564-1.968 0-.822-.187-1.474-.562-1.954-.375-.477-.887-.72-1.53-.72zm0-.734c.914 0 1.648.312 2.203.937.55.617.828 1.438.828 2.47 0 1.042-.277 1.87-.828 2.483-.555.617-1.29.922-2.203.922-.93 0-1.668-.305-2.22-.922C.774-1.41.5-2.237.5-3.28c0-1.033.273-1.853.828-2.47.55-.625 1.29-.938 2.22-.938zm0 0"/></symbol><symbol overflow="visible" id="b"><path d="M.89-6.563H2.08l2.906 5.485v-5.484h.86V0H4.656L1.75-5.484V0H.89zm0 0"/></symbol><symbol overflow="visible" id="c"><path d="M.89-6.563h.876v2.688H5v-2.688h.89V0H5v-3.125H1.766V0H.89zm0 0"/></symbol></defs><g><path fill="#fff" d="M0 0h300v300H0z"/><path d="M168.465 116.473L155.367 99.36l-5.066 5.52zm0 0"/><path d="M168.465 116.473l-4.617 20.715M168.465 116.473l20.246-6.36M163.848 137.188l15.632 14.355M162.035 142.305l12.504 11.48M179.48 151.543l-4.617 20.715M174.863 172.258l15.633 14.355M174.863 172.258l-10.125 3.18" stroke-width="1.2" stroke="#000" stroke-miterlimit="10" fill="none"/><path d="M164.738 175.438l-10.12 3.18" stroke-width="1.2" stroke="#00f" stroke-miterlimit="10" fill="none"/><path d="M190.496 186.613l-4.617 20.715M194.906 189.773l-3.69 16.57M210.742 180.254l-20.246 6.36M185.88 207.328l15.632 14.356M201.512 221.684l20.246-6.36M202.04 216.285l16.198-5.09M221.758 215.324l4.617-20.715M221.758 215.324l15.633 14.356M226.375 194.61l-15.633-14.356M221.434 196.852l-12.504-11.485M238.137 232.063l10.125-3.18" stroke-width="1.2" stroke="#000" stroke-miterlimit="10" fill="none"/><path d="M248.262 228.883l10.125-3.18" stroke-width="1.2" stroke="#f00" stroke-miterlimit="10" fill="none"/><path d="M236.64 227.297l10.126-3.18" stroke-width="1.2" stroke="#000" stroke-miterlimit="10" fill="none"/><path d="M246.766 224.117l10.125-3.18" stroke-width="1.2" stroke="#f00" stroke-miterlimit="10" fill="none"/><path d="M237.39 229.68l-2.308 10.36" stroke-width="1.2" stroke="#000" stroke-miterlimit="10" fill="none"/><path d="M235.082 240.04l-2.31 10.355" stroke-width="1.2" stroke="#f00" stroke-miterlimit="10" fill="none"/><path d="M253.637 217.82h8v11h-8zm0 0" fill="#fff"/><use xlink:href="#a" x="253.637" y="226.483" fill="#f00"/><path d="M232.773 250.395l7.817 7.18" stroke-width="1.2" stroke="#f00" stroke-miterlimit="10" fill="none"/><path d="M240.59 257.574l7.816 7.176" stroke-width="1.2" stroke="#000" stroke-miterlimit="10" fill="none"/><path d="M228.773 244.895h8v11h-8zm0 0" fill="#fff"/><use xlink:href="#a" x="228.773" y="253.558" fill="#f00"/><path d="M154.617 178.617l-7.816-7.176" stroke-width="1.2" stroke="#00f" stroke-miterlimit="10" fill="none"/><path d="M146.8 171.44l-7.816-7.174" stroke-width="1.2" stroke="#000" stroke-miterlimit="10" fill="none"/><path d="M147.617 173.117h14v11h-14zm0 0" fill="#fff"/><g fill="#00f"><use xlink:href="#b" x="147.617" y="181.78"/><use xlink:href="#c" x="154.595" y="181.78"/></g><path d="M141.422 164.81l2.308-10.36" stroke-width="1.2" stroke="#000" stroke-miterlimit="10" fill="none"/><path d="M143.73 154.45l2.31-10.356" stroke-width="1.2" stroke="#f00" stroke-miterlimit="10" fill="none"/><path d="M136.547 163.723l2.308-10.36" stroke-width="1.2" stroke="#000" stroke-miterlimit="10" fill="none"/><path d="M138.855 153.363l2.31-10.355" stroke-width="1.2" stroke="#f00" stroke-miterlimit="10" fill="none"/><path d="M138.984 164.266l-10.125 3.18" stroke-width="1.2" stroke="#000" stroke-miterlimit="10" fill="none"/><path d="M128.86 167.445l-10.122 3.18" stroke-width="1.2" stroke="#f00" stroke-miterlimit="10" fill="none"/><path d="M139.602 138.05h8v11h-8zm0 0" fill="#fff"/><use xlink:href="#a" x="139.602" y="146.714" fill="#f00"/><path d="M118.738 170.625l-7.816-7.18" stroke-width="1.2" stroke="#f00" stroke-miterlimit="10" fill="none"/><path d="M110.922 163.445l-7.817-7.175" stroke-width="1.2" stroke="#000" stroke-miterlimit="10" fill="none"/><path d="M114.738 165.125h8v11h-8zm0 0" fill="#fff"/><use xlink:href="#a" x="114.738" y="173.788" fill="#f00"/><path d="M103.105 156.27l-20.25 6.36M82.855 162.63l-15.628-14.357M77.918 164.87L65.41 153.388M78.242 183.344l4.613-20.715M67.227 148.273l-20.25 6.36M46.977 154.633l-4.614 20.715M51.39 157.79l-3.69 16.573M42.363 175.348l15.63 14.355M57.992 189.703l20.25-6.36M58.523 184.305l16.196-5.09M187.023 111.953l7.817 7.18" stroke-width="1.2" stroke="#000" stroke-miterlimit="10" fill="none"/><path d="M194.84 119.133l7.816 7.176" stroke-width="1.2" stroke="#f00" stroke-miterlimit="10" fill="none"/><path d="M190.402 108.277l7.817 7.176" stroke-width="1.2" stroke="#000" stroke-miterlimit="10" fill="none"/><path d="M198.22 115.453l7.81 7.176" stroke-width="1.2" stroke="#f00" stroke-miterlimit="10" fill="none"/><path d="M188.71 110.113l2.31-10.355" stroke-width="1.2" stroke="#000" stroke-miterlimit="10" fill="none"/><path d="M191.02 99.758l2.308-10.36" stroke-width="1.2" stroke="#00f" stroke-miterlimit="10" fill="none"/><path d="M200.344 118.97h8v11h-8zm0 0" fill="#fff"/><use xlink:href="#a" x="200.344" y="127.632" fill="#f00"/><path d="M193.328 89.398l10.125-3.18" stroke-width="1.2" stroke="#00f" stroke-miterlimit="10" fill="none"/><path d="M203.453 86.22l10.12-3.18" stroke-width="1.2" stroke="#000" stroke-miterlimit="10" fill="none"/><path d="M186.328 83.898h14v11h-14zm0 0" fill="#fff"/><g fill="#00f"><use xlink:href="#b" x="186.328" y="92.562"/><use xlink:href="#c" x="193.306" y="92.562"/></g><path d="M213.574 83.04l4.617-20.716M218.19 62.324l10.126-3.18" stroke-width="1.2" stroke="#000" stroke-miterlimit="10" fill="none"/><path d="M228.316 59.145l10.125-3.18M238.44 55.965l2.306-10.356" stroke-width="1.2" stroke="#f00" stroke-miterlimit="10" fill="none"/><path d="M240.746 45.61l2.31-10.36" stroke-width="1.2" stroke="#000" stroke-miterlimit="10" fill="none"/><path d="M234.44 50.465h8v11h-8zm0 0" fill="#fff"/><use xlink:href="#a" x="234.441" y="59.128" fill="#f00"/></g></svg>
